X: 27961
T: Mouse Behind The Dresser, The
R: reel
M: 4/4
K: Gmajor
(3efg dB G3E|DG G2 DGBc|dBAB G3A|Beed efge|
dBAB G3E|DG G2 DGBc|dBAB G3A||Beed e2 ge||
dB B2 dBgf|dB B2 d2 ge|dB B2 g2 fg|(3efg fa g2 Bd|
dB B2 dBgf|edef g3a|bgaf gfed|(3efg fa g2 Bd||

